X:322
%%etbk:tnset id:98,pos:4,rep:3x,ant:
%%etbk:wsite http://www.thesession.org/tunes/display/532
%%etbk:pldat 2016-06-22T15:16,2016-06-18T15:54,2016-05-04T14:09,2016-03-11T15:40,2016-03-09T15:51,2016-03-08T15:07,2016-02-23T16:59,2015-11-02T18:22,2015-10-27T16:54,2015-10-25T14:52,2015-10-21T16:29,2015-10-07T15:43,2015-06-23T18:55,2015-03-13T17:55,2015-03-10T16:22,2015-03-05T18:02,2015-02-04T16:50,2014-11-06T18:09,2014-11-04T16:36,2014-11-02T14:09,2014-10-29T16:05,2014-08-21T19:37,2014-08-20T18:44,2014-06-25T16:26,2014-03-05T19:26,2014-03-02T16:36,2014-02-26T17:03,2014-02-16T13:40,2013-10-30T17:24,2013-10-29T17:26,2013-10-27T14:12,2013-10-23T18:16,2013-10-16T15:49,2013-10-11T18:12,2013-10-07T18:10
T: Paddy Fahy's
Z: Piano Box Version by Martin Fleischmann
H: Created 2013-02-19 /  Last Modified 2013-02-19
M: 6/8
L: 1/8
R: jig
K: Gmaj
|: "G"!1!D!3!G!4!A !2!B{d}B!1!G | !3!cB!3!c !1!d2!4!g | !4!g!3!f!1!d !2!Bcd | "D"!3!c!1!A!3!G !4!A!3!G!2!F |
"G"!1!D!3!G!4!A !2!B{d}B!1!G | !3!cB!3!c !1!d2!4!g | !4!g!3!f!1!d !2!Bcd |1 "D"!3!c!1!A!2!F "G"!3!G3 :|2 "D"!3!c!1!A!2!F "G"!1!G !2!(3B!3!^c!1!d ||
|: "G"!4!g2!1!d !3!fga | !4!g!3!f!1!d !2!Bcd | "D"!3!c!1!AA !3!f!1!AA | !5!agf !1!de!3!f |
 "G"!1!g2a !3!ba!1!g | "D"!3!f!1!d!4!g !3!f!1!d!3!c | "G"!2!B2!1!G "D"{c}!2!A!1!G!2!F |1 "G"!1!D!3!G!2!F !1!G !2!(3B!3!^c!1!d :|2 "G"!1!D!3!G!2!F !3!G3 ||


